src/assets/Carr.svg

<svg width="24" height="24" viewBox="0 0 24 24" fill="none" xmlns="http://www.w3.org/2000/svg">
<path fill-rule="evenodd" clip-rule="evenodd" d="M5.27176 8.214C6.02153 6.312 6.92341 5 8.96506 5H14.4377C16.4774 5 17.3803 6.312 18.131 8.214L18.8808 10.249C19.4395 10.2559 19.9527 10.5661 20.2292 11.064C20.3919 11.3476 20.4771 11.6709 20.4759 12V14.624C20.4832 15.2367 20.1816 15.8098 19.6784 16.14C19.439 16.2929 19.1628 16.3739 18.8808 16.374H4.52101C4.23906 16.3739 3.96278 16.2929 3.72346 16.14C3.22018 15.8098 2.91865 15.2367 2.92591 14.624V12C2.92485 11.6713 3.01006 11.3483 3.17258 11.065C3.44912 10.5671 3.96234 10.2569 4.52101 10.25L5.27176 8.214Z" stroke="#2F3A41" stroke-width="2" stroke-linecap="round" stroke-linejoin="round"/>
<path d="M6.86696 16.374C6.86696 15.9598 6.53118 15.624 6.11696 15.624C5.70275 15.624 5.36696 15.9598 5.36696 16.374H6.86696ZM6.11696 17.687H5.36696C5.36696 17.6948 5.36708 17.7026 5.36733 17.7104L6.11696 17.687ZM4.91966 18.999L4.89286 19.7485C4.91053 19.7492 4.92821 19.7492 4.94587 19.7486L4.91966 18.999ZM3.72334 17.686L4.47295 17.71C4.47321 17.702 4.47334 17.694 4.47334 17.686H3.72334ZM4.47334 16.139C4.47334 15.7248 4.13755 15.389 3.72334 15.389C3.30912 15.389 2.97334 15.7248 2.97334 16.139H4.47334ZM4.52089 9.49805C4.10667 9.49805 3.77089 9.83384 3.77089 10.248C3.77089 10.6622 4.10667 10.998 4.52089 10.998V9.49805ZM18.8807 10.998C19.2949 10.998 19.6307 10.6622 19.6307 10.248C19.6307 9.83384 19.2949 9.49805 18.8807 9.49805V10.998ZM18.0356 16.373C18.0356 15.9588 17.6998 15.623 17.2856 15.623C16.8714 15.623 16.5356 15.9588 16.5356 16.373H18.0356ZM17.2856 17.686L18.0342 17.7326C18.0351 17.7171 18.0356 17.7016 18.0356 17.686H17.2856ZM19.6792 17.686H18.9292C18.9292 17.7016 18.9297 17.7171 18.9307 17.7326L19.6792 17.686ZM20.4292 16.139C20.4292 15.7248 20.0935 15.389 19.6792 15.389C19.265 15.389 18.9292 15.7248 18.9292 16.139H20.4292ZM5.85079 12.749C5.43657 12.749 5.10079 13.0848 5.10079 13.499C5.10079 13.9132 5.43657 14.249 5.85079 14.249V12.749ZM6.82579 14.249C7.24 14.249 7.57579 13.9132 7.57579 13.499C7.57579 13.0848 7.24 12.749 6.82579 12.749V14.249ZM16.5758 12.749C16.1616 12.749 15.8258 13.0848 15.8258 13.499C15.8258 13.9132 16.1616 14.249 16.5758 14.249V12.749ZM17.5508 14.249C17.965 14.249 18.3008 13.9132 18.3008 13.499C18.3008 13.0848 17.965 12.749 17.5508 12.749V14.249ZM5.36696 16.374V17.687H6.86696V16.374H5.36696ZM5.36733 17.7104C5.37689 18.0165 5.14649 18.2406 4.89345 18.2495L4.94587 19.7486C6.05994 19.7096 6.90084 18.7598 6.8666 17.6636L5.36733 17.7104ZM4.94646 18.2495C4.6934 18.2405 4.46315 18.0161 4.47295 17.71L2.97372 17.662C2.9386 18.7582 3.7788 19.7087 4.89286 19.7485L4.94646 18.2495ZM4.47334 17.686V16.139H2.97334V17.686H4.47334ZM4.52089 10.998H18.8807V9.49805H4.52089V10.998ZM16.5356 16.373V17.686H18.0356V16.373H16.5356ZM16.5371 17.6394C16.4919 18.3657 16.8432 19.0668 17.4649 19.4533L18.2568 18.1793C18.1145 18.0909 18.0224 17.9209 18.0342 17.7326L16.5371 17.6394ZM17.4649 19.4533C18.0894 19.8414 18.8754 19.8414 19.4999 19.4533L18.7081 18.1793C18.5685 18.2661 18.3964 18.2661 18.2568 18.1793L17.4649 19.4533ZM19.4999 19.4533C20.1217 19.0668 20.473 18.3657 20.4278 17.6394L18.9307 17.7326C18.9424 17.9209 18.8504 18.0909 18.7081 18.1793L19.4999 19.4533ZM20.4292 17.686V16.139H18.9292V17.686H20.4292ZM5.85079 14.249H6.82579V12.749H5.85079V14.249ZM16.5758 14.249H17.5508V12.749H16.5758V14.249Z" fill="#2F3A41"/>
</svg>

<svg xmlns="http://www.w3.org/2000/svg" width="24" height="24" fill="none" viewBox="0 0 24 24"><path stroke="#2f3a41" stroke-linecap="round" stroke-linejoin="round" stroke-width="2" d="M5.272 8.214C6.022 6.312 6.923 5 8.965 5h5.473c2.04 0 2.942 1.312 3.693 3.214l.75 2.035a1.57 1.57 0 0 1 1.348.815c.163.284.248.607.247.936v2.624a1.79 1.79 0 0 1-.798 1.516c-.239.153-.515.234-.797.234H4.52c-.282 0-.558-.081-.798-.234a1.79 1.79 0 0 1-.797-1.516V12a1.87 1.87 0 0 1 .247-.935c.276-.498.79-.808 1.348-.815z" clip-rule="evenodd"/><path fill="#2f3a41" d="M6.867 16.374a.75.75 0 0 0-1.5 0zm-.75 1.313h-.75v.023zM4.92 18.999l-.027.75h.053zm-1.197-1.313.75.024v-.024zm.75-1.547a.75.75 0 0 0-1.5 0zm.048-6.641a.75.75 0 1 0 0 1.5zm14.36 1.5a.75.75 0 0 0 0-1.5zm-.845 5.375a.75.75 0 0 0-1.5 0zm-.75 1.313.748.047.002-.047zm2.393 0h-.75q0 .023.002.047zm.75-1.547a.75.75 0 1 0-1.5 0zm-14.578-3.39a.75.75 0 0 0 0 1.5zm.975 1.5a.75.75 0 0 0 0-1.5zm9.75-1.5a.75.75 0 0 0 0 1.5zm.975 1.5a.75.75 0 0 0 0-1.5zM5.367 16.374v1.313h1.5v-1.313zm0 1.336a.51.51 0 0 1-.474.54l.053 1.499c1.114-.04 1.955-.99 1.92-2.085zm-.42.54a.51.51 0 0 1-.474-.54l-1.5-.048c-.034 1.096.806 2.047 1.92 2.087zm-.474-.564v-1.547h-1.5v1.547zm.048-6.688h14.36v-1.5H4.52zm12.015 5.375v1.313h1.5v-1.313zm.001 1.266a1.99 1.99 0 0 0 .928 1.814l.792-1.274a.49.49 0 0 1-.223-.446zm.928 1.814c.624.388 1.41.388 2.035 0l-.792-1.274a.42.42 0 0 1-.451 0zm2.035 0a1.99 1.99 0 0 0 .928-1.814l-1.497.094a.49.49 0 0 1-.223.446zm.93-1.767v-1.547h-1.5v1.547zM5.85 14.249h.976v-1.5H5.85zm10.726 0h.975v-1.5h-.975z"/></svg>
